dist/img/icons/Social__icons/viber.svg

<svg width="19" height="23" viewBox="0 0 19 23" fill="none" xmlns="http://www.w3.org/2000/svg">
<path d="M5.52786 15.2767L5.58208 15.0768L5.47905 14.8971C4.89353 13.876 4.55226 12.6593 4.55226 11.4479C4.55226 7.61111 7.67171 4.5 11.5261 4.5C13.379 4.5 15.1339 5.22819 16.4519 6.54167C17.763 7.84817 18.4494 9.59491 18.5 11.4026C18.4963 15.2363 15.3783 18.3438 11.5261 18.3438C10.3565 18.3438 9.23345 18.0527 8.2035 17.5151L8.0322 17.4257L7.84529 17.4747L4.70866 18.2973L5.52786 15.2767ZM12.5431 15.402L12.5745 15.4145L12.6074 15.4227C13.0938 15.5439 13.579 15.5454 13.9548 15.4837C14.2375 15.4418 14.5797 15.2841 14.8578 15.1017C15.1276 14.9248 15.4639 14.643 15.6004 14.2803C15.6954 14.0278 15.7447 13.7867 15.7615 13.5778C15.7773 13.3803 15.767 13.1751 15.7111 13.0081L15.6736 12.8959L15.5899 12.8125C15.5116 12.7345 15.4204 12.6808 15.355 12.6446C15.2897 12.6084 15.2078 12.5675 15.1164 12.5219C14.9865 12.4423 14.7073 12.2986 14.4669 12.1788C14.3273 12.1092 14.1864 12.0407 14.0693 11.9857C13.9649 11.9367 13.8475 11.8831 13.7743 11.8588C13.7707 11.8576 13.7662 11.8561 13.7612 11.8543C13.697 11.8324 13.5249 11.7733 13.343 11.7898C13.2262 11.8004 13.102 11.84 12.9883 11.9243C12.8786 12.0055 12.8036 12.1098 12.7517 12.2133C12.7278 12.261 12.6448 12.3776 12.5247 12.5239C12.4586 12.6044 12.3946 12.6779 12.3459 12.732C12.3284 12.7239 12.31 12.7155 12.2907 12.7067C12.0216 12.5841 11.5803 12.3831 11.0202 11.9058C10.6037 11.5273 10.3115 11.1211 10.1702 10.8926C10.1772 10.884 10.1834 10.8763 10.1885 10.8698C10.2027 10.8519 10.2196 10.8302 10.235 10.8104C10.2419 10.8015 10.2485 10.793 10.2543 10.7855C10.3001 10.7268 10.3355 10.684 10.3634 10.6563L10.0105 10.3021L10.3634 10.6563C10.5259 10.4943 10.6088 10.3289 10.6614 10.2238C10.6631 10.2204 10.6648 10.2171 10.6664 10.2138C10.7895 9.96854 10.7895 9.69813 10.6664 9.45286L10.63 9.38025L10.6232 9.37347C10.6137 9.35311 10.602 9.32688 10.5878 9.29457C10.5462 9.19921 10.4925 9.07022 10.4338 8.92731C10.398 8.84008 10.3602 8.74731 10.3227 8.65526C10.2403 8.45292 10.1593 8.25408 10.1039 8.12538C10.0027 7.89012 9.85665 7.68067 9.62224 7.57449C9.42022 7.48298 9.16789 7.51042 9.22648 7.51042H9.22587H9.22525H9.22464H9.22402H9.2234H9.22278H9.22216H9.22154H9.22092H9.2203H9.21967H9.21904H9.21842H9.21779H9.21716H9.21653H9.2159H9.21527H9.21463H9.214H9.21336H9.21272H9.21209H9.21145H9.21081H9.21016H9.20952H9.20888H9.20823H9.20759H9.20694H9.20629H9.20564H9.20499H9.20434H9.20369H9.20304H9.20238H9.20173H9.20107H9.20042H9.19976H9.1991H9.19844H9.19778H9.19712H9.19645H9.19579H9.19512H9.19446H9.19379H9.19312H9.19245H9.19178H9.19111H9.19044H9.18977H9.1891H9.18842H9.18775H9.18707H9.18639H9.18571H9.18503H9.18435H9.18367H9.18299H9.18231H9.18163H9.18094H9.18026H9.17957H9.17888H9.1782H9.17751H9.17682H9.17613H9.17544H9.17474H9.17405H9.17336H9.17266H9.17197H9.17127H9.17058H9.16988H9.16918H9.16848H9.16778H9.16708H9.16638H9.16568H9.16497H9.16427H9.16356H9.16286H9.16215H9.16144H9.16074H9.16003H9.15932H9.15861H9.1579H9.15719H9.15648H9.15576H9.15505H9.15434H9.15362H9.15291H9.15219H9.15147H9.15076H9.15004H9.14932H9.1486H9.14788H9.14716H9.14644H9.14571H9.14499H9.14427H9.14354H9.14282H9.14209H9.14137H9.14064H9.13992H9.13919H9.13846H9.13773H9.137H9.13627H9.13554H9.13481H9.13408H9.13335H9.13261H9.13188H9.13115H9.13041H9.12968H9.12894H9.12821H9.12747H9.12673H9.12599H9.12526H9.12452H9.12378H9.12304H9.1223H9.12156H9.12082H9.12008H9.11933H9.11859H9.11785H9.1171H9.11636H9.11562H9.11487H9.11413H9.11338H9.11264H9.11189H9.11114H9.11039H9.10965H9.1089H9.10815H9.1074H9.10665H9.1059H9.10515H9.1044H9.10365H9.1029H9.10215H9.1014H9.10064H9.09989H9.09914H9.09838H9.09763H9.09688H9.09612H9.09537H9.09461H9.09386H9.0931H9.09235H9.09159H9.09083H9.09008H9.08932H9.08856H9.08781H9.08705H9.08629H9.08553H9.08477H9.08401H9.08325H9.08249H9.08174H9.08098H9.08022H9.07945H9.07869H9.07793H9.07717H9.07641H9.07565H9.07489H9.07413H9.07336H9.0726H9.07184H9.07108H9.07032H9.06955H9.06879H9.06803H9.06726H9.0665H9.06574H9.06497H9.06421H9.06344H9.06268H9.06192H9.06115H9.06039H9.05962H9.05886H9.05809H9.05733H9.05656H9.0558H9.05503H9.05427H9.0535H9.05274H9.05197H9.05121H9.05044H9.04968H9.04891H9.04815H9.04738H9.04662H9.04585H9.04508H9.04432H9.04355H9.04279H9.04202H9.04126H9.04049H9.03972H9.03896H9.03819H9.03743H9.03666H9.0359H9.03513H9.03437H9.0336H9.03284H9.03207H9.03131H9.03054H9.02978H9.02901H9.02825H9.02748H9.02672H9.02595H9.02519H9.02443H9.02366H9.0229H9.02213H9.02137H9.02061H9.01984H9.01908H9.01832H9.01755H9.01679H9.01603H9.01527H9.0145H9.01374H9.01298H9.01222H9.01146H9.01069H9.00993H9.00917H9.00841H9.00765H9.00689H9.00613H9.00537H9.00461H9.00385H9.00309H9.00233H9.00157H9.00082H9.00006H8.9993H8.99854H8.99779H8.99703H8.99627H8.99552H8.99476H8.994H8.99325H8.99249H8.99174H8.99098H8.99023H8.98947H8.98872H8.98797H8.98721H8.98646H8.98571H8.98496H8.98421H8.98346H8.9827H8.98195H8.9812H8.98045H8.9797H8.97896H8.97821H8.97746H8.97671H8.97596H8.97522H8.97447H8.97372H8.97298H8.97223H8.97149H8.97075H8.97H8.96926H8.96851H8.96777H8.96703H8.96629H8.96555H8.96481H8.96407H8.96333H8.96259H8.96185H8.96111H8.96037H8.95964H8.9589H8.95816H8.95743H8.95669H8.95596H8.95523H8.95449H8.95376H8.95303H8.9523H8.95156H8.95083H8.9501H8.94937H8.94865H8.94792H8.94719H8.94646H8.94574H8.94501H8.94429H8.94356H8.94284H8.94211H8.94139H8.94067H8.93995H8.93923H8.93851H8.93779H8.93707H8.93635H8.93563H8.93492H8.9342H8.93348H8.93277H8.93206H8.93134H8.93063H8.92992H8.92921H8.9285H8.92779H8.92708H8.92637H8.92566H8.92495H8.92425H8.92354H8.92284H8.92213H8.92143H8.92073H8.92003H8.91933H8.91863H8.91793H8.91723H8.91653H8.91583H8.91514H8.91444H8.91375H8.91305H8.91236H8.91167H8.91098H8.91029H8.9096H8.90891H8.90822H8.90754H8.90685H8.90616H8.90548H8.9048H8.90411H8.90343H8.90275H8.90207H8.90139H8.90071H8.90004H8.89936H8.89868H8.89801H8.89734H8.89666H8.89599H8.89532H8.89465H8.89398H8.89332H8.89265H8.89198H8.89132H8.89065H8.88999H8.88933H8.88867H8.88801H8.88735H8.88669H8.88603H8.88538H8.88472H8.88407H8.88341H8.88276H8.88211H8.88146H8.88081H8.88017H8.87952H8.87887H8.87823H8.87758H8.87694H8.8763H8.87566H8.87502H8.87438H8.87375H8.87311H8.87247H8.87184H8.87121H8.87058H8.86995H8.86932H8.86869H8.86806H8.86744H8.86681H8.86619H8.86556H8.86494H8.86432H8.8637H8.86309H8.86247H8.86185H8.86124H8.86063C8.85578 7.51042 8.85062 7.5104 8.84516 7.51038C8.68076 7.50987 8.24671 7.50853 7.93848 7.91808C7.93412 7.92387 7.92421 7.93554 7.90999 7.95229C7.83887 8.03605 7.65991 8.24681 7.52833 8.48408C7.3527 8.80077 7.2108 9.22223 7.2108 9.78125C7.2108 10.3629 7.41871 10.9012 7.62004 11.2881C7.79387 11.6222 7.98722 11.8891 8.09925 12.0167C8.29174 12.3081 9.53681 14.1638 11.4754 14.976C11.7906 15.1316 12.1085 15.2449 12.3339 15.3252C12.4182 15.3552 12.4896 15.3806 12.5431 15.402ZM12.2607 12.8218C12.2607 12.8218 12.2613 12.8213 12.2625 12.8203C12.2613 12.8214 12.2607 12.8219 12.2607 12.8218Z" fill="white" stroke="white"/>
</svg>

<svg width="19" height="23" fill="none" xmlns="http://www.w3.org/2000/svg"><path d="M5.528 15.277l.054-.2-.103-.18a7.03 7.03 0 01-.927-3.45c0-3.836 3.12-6.947 6.974-6.947 1.853 0 3.608.728 4.926 2.042 1.311 1.306 1.997 3.053 2.048 4.86-.004 3.834-3.122 6.942-6.974 6.942a7.142 7.142 0 01-3.322-.829l-.172-.09-.187.05-3.136.822.819-3.02zm7.015.125l.032.013.032.008c.487.12.972.122 1.348.06.283-.041.625-.199.903-.381.27-.177.606-.459.742-.822a2.61 2.61 0 00.162-.702 1.484 1.484 0 00-.05-.57l-.038-.112-.084-.084a1.045 1.045 0 00-.235-.167 6.67 6.67 0 00-.239-.123c-.13-.08-.409-.223-.65-.343-.139-.07-.28-.138-.397-.193a3.293 3.293 0 00-.295-.127l-.013-.005a1.045 1.045 0 00-.418-.064.697.697 0 00-.355.134.8.8 0 00-.236.29 2.357 2.357 0 01-.227.31c-.066.08-.13.154-.18.208a10.81 10.81 0 00-.054-.025 4.979 4.979 0 01-1.27-.801 4.978 4.978 0 01-.85-1.013 1.694 1.694 0 00.064-.083l.02-.024c.045-.06.08-.102.108-.13l-.352-.354.352.354a1.53 1.53 0 00.298-.432l.005-.01a.83.83 0 000-.761l-.036-.073-.007-.007a20.012 20.012 0 01-.3-.718 34.415 34.415 0 00-.22-.53c-.1-.235-.246-.444-.48-.55-.203-.092-.455-.065-.397-.065h0-.002 0-.001 0-.002 0-.002 0-.001 0-.002 0-.002 0-.001 0-.002 0-.002 0-.002 0-.002 0-.002 0-.001 0H9.2h0-.002 0-.002 0-.002 0-.002 0-.002 0-.002 0-.002 0-.001 0-.002 0-.002 0-.002 0-.002 0-.002 0-.001 0-.002 0-.002 0-.002 0-.002 0-.001 0-.002 0-.002 0-.001 0-.002 0-.002 0-.001 0-.002 0-.002 0-.001 0-.002 0-.002 0-.001 0-.002 0-.002 0-.001 0-.002 0-.001 0-.002 0-.002 0-.001 0-.002 0-.001 0-.002 0-.001 0-.003 0-.002 0-.002 0-.001 0-.002 0-.001 0-.002 0-.001 0-.002 0-.001 0-.002 0-.001 0-.002 0-.001 0H9.1h0-.002 0-.001 0-.002 0-.001 0-.002 0-.001 0-.002 0-.001 0-.002 0-.002 0-.002 0-.001 0-.002 0-.001 0-.002 0-.001 0-.002 0-.001 0-.002 0-.002 0-.002 0-.001 0-.002 0-.001 0-.002 0-.001 0-.002 0-.002 0-.002 0-.001 0-.002 0-.001 0-.002 0-.001 0-.002 0-.002 0-.002 0-.001 0-.002 0-.001 0-.002 0-.001 0-.002 0-.002 0-.002 0-.001 0-.002 0-.001 0-.002 0-.001 0-.002 0-.002 0-.002 0-.001 0-.002 0-.001 0-.002 0-.001 0-.002 0-.001 0-.002 0H9h0-.002 0-.002 0-.003 0-.002 0-.001 0-.002 0-.001 0-.002 0-.001 0-.002 0-.001 0-.002 0-.001 0-.002 0-.001 0-.002 0-.001 0-.002 0-.001 0-.003 0-.002 0-.002 0-.001 0-.002 0-.001 0-.002 0-.001 0-.002 0-.001 0-.002 0-.002 0-.001 0-.002 0-.001 0-.002 0-.002 0-.001 0-.002 0-.002 0-.001 0-.002 0-.002 0-.001 0-.002 0-.002 0-.001 0-.002 0-.002 0-.001 0-.002 0-.002 0-.002 0-.002 0-.001 0-.002 0-.002 0-.002 0-.002 0H8.9h0-.002 0-.002 0-.002 0-.002 0-.002 0-.002 0-.002 0-.001 0-.002 0-.002 0-.002 0-.002 0-.002 0-.001 0-.002 0-.002 0-.001 0-.002 0-.002 0-.001 0-.002 0-.017c-.164 0-.598-.001-.907.408l-.028.034c-.071.084-.25.295-.382.532a2.618 2.618 0 00-.317 1.297c0 .582.208 1.12.409 1.507.174.334.367.601.48.729.192.291 1.437 2.147 3.375 2.959.316.156.633.269.859.35.084.03.156.055.21.076zm-.282-2.58l.002-.002a.008.008 0 01-.002.002z" fill="#fff" stroke="#fff"/></svg>
